X: 43
T: Praeludia organi op. 5 – Lento
C: Franciszek Walczyński
%%abc-version 2.0
%%abcx-abcm2ps-target-version 5.9.1 (29 Sep 2008)
%%abc-creator hum2abc beta
%%abcx-conversion-date 2021/10/04 07:38:39
%%abc-edited-by Andrzej Borzym
%%abc-edited-by Katarzyna Serwa
%%abcx-initial-encoding-date 2021-07-26
%%humdrum-veritas 1489208764
%%humdrum-veritas-data 2472408572
%%linebreak <none>
%%barnumbers 0
L: 1/4
M: C
N: Derived from pl-kozmzk--mzk-m-159--032_walczynski-franciszek--praeludia-organi-op-5-lento.krn
Q: "32. Lento."
%%staves {1 2}
V: 1 clef=treble
V: 2 clef=bass
K: Bb
[V:1] B2AG & D2E2- | 
[V:2] zF,G,A, & B,,4 | 
[V:1] F4 & EDC2 | 
[V:2] B,3A, & B,,2F,2 | 
[V:1] F^FGe & FD/C/B,G | 
[V:2] B,A,G,C & D,2E,C, | 
[V:1] c3^c & GF/=E/FG- | 
[V:2] B,A,/G,/A,G, & F,3E, | 
[V:1] !accent!d3c & G^FGA- | 
[V:2] A,D3- & D,2=E,^F, | 
[V:1] B2A2 & AGF2 | 
[V:2] D2CD & G,2A,B, | 
[V:1] A_AG2 & F3E | 
[V:2] C3B,- & C2C,2 | 
[V:1] F3z & F3x | 
[V:2] B,A,/G,/A,z & F,3z | 
[V:1] c>B A/B/A/G/ & F4- | 
[V:2] A,/^G,/A,/B,/ C/D/C/B,/ & F,4- | 
[V:1] F/G/A/B/ce & F4 | 
[V:2] A,/B,/C/D/ E/=D/C/A,/ & F,4 | 
[V:1] d2ec & F/=E/F/^F/G2 | 
[V:2] B,2-B,/=B,/C/E/ & B,,2E,2 | 
[V:1] B2A2 & F>G A/G/F/E/ | 
[V:2] D/^C/D/=E/ F/_E/D/=C/ & F,4 | 
[V:1] B2AG & D2E2 | 
[V:2] B,F,G,A, & B,,4- | 
[V:1] F3^F & EDC2 | 
[V:2] B,2A,2 & B,,2D,2 | 
[V:1] Gedc & B,GFG | 
[V:2] G,C=B,C & E,C,D,E, | 
[V:1] B3A & F2E2 | 
[V:2] D_DC2 & F,4 | 
[V:1] B4- & D2FG/F/ | 
[V:2] B,A,_A,2 & B,,4- | 
[V:1] B4- & F=E_EB,/C/ | 
[V:2] G,2_G,2 & B,,4- | 
[V:1] B4- & DEDC | 
[V:2] F,=G,F,E, & B,,4- | 
[V:1] !fermata!B4 & D4 |]  
[V:2] F,4 & !fermata!B,,4 |]  


